images/media-s-icon.svg

<svg width="24" height="24" viewBox="0 0 24 24" fill="none" xmlns="http://www.w3.org/2000/svg">
    <rect x="5" y="1.5" width="19" height="16" rx="5" fill="#D4E5FB"/>
    <path d="M4.5 6H13C17.5 6 19.5 7.21184 19.5 12.5C19.5 16.1 19.5 16.8333 19.5 17.5" stroke="white" stroke-linecap="round" stroke-linejoin="round"/>
    <rect y="6.5" width="19" height="16" rx="5" fill="white"/>
    <path d="M16.791 11.338C16.791 12.076 16.166 12.675 15.395 12.675C14.624 12.675 14 12.076 14 11.338C14 10.599 14.625 10 15.395 10C16.165 10 16.791 10.599 16.791 11.338Z" fill="#2A7DEC"/>
    <path fill-rule="evenodd" clip-rule="evenodd" d="M15.2342 6.63961C14.2272 6.49913 12.9409 6.49913 11.3174 6.50016H7.68265C6.05815 6.50016 4.77185 6.50016 3.7658 6.63961C2.7303 6.78317 1.8905 7.08773 1.2293 7.77169C0.5681 8.45566 0.2755 9.32317 0.1349 10.3958C-4.24683e-08 11.4366 0 12.7676 0 14.4483V14.5508C0 16.2325 -4.24683e-08 17.5625 0.1349 18.6044C0.27455 19.677 0.5681 20.5445 1.2293 21.2285C1.8905 21.9124 2.7303 22.216 3.7658 22.3605C4.7728 22.5 6.0591 22.5 7.68265 22.5H11.3174C12.9418 22.5 14.2281 22.5 15.2342 22.3605C16.2697 22.217 17.1095 21.9124 17.7707 21.2285C18.4319 20.5445 18.7255 19.676 18.8651 18.6044C19 17.5625 19 16.2315 19 14.5519V14.4493C19 12.7676 19 11.4376 18.8651 10.3958C18.7255 9.32317 18.4319 8.45566 17.7707 7.77169C17.1095 7.08773 16.2697 6.7842 15.2342 6.63961ZM3.9425 7.99934C3.0533 8.12239 2.54125 8.35414 2.166 8.74175C1.79265 9.12834 1.56845 9.65849 1.44875 10.5783C1.35375 11.3166 1.3319 12.2385 1.32715 13.4444L1.77365 13.0393C2.8424 12.0734 4.4517 12.1288 5.4549 13.1665L9.2454 17.0888C9.43326 17.28 9.6757 17.3967 9.93302 17.4198C10.1903 17.4429 10.4473 17.371 10.6618 17.2159L10.926 17.0242C11.5455 16.577 12.2832 16.3601 13.0273 16.4063C13.7713 16.4526 14.4811 16.7595 15.0489 17.2805L17.3356 19.4104C17.4287 19.1397 17.5 18.8166 17.5513 18.4218C17.6728 17.4826 17.6747 16.2438 17.6747 14.5006C17.6747 12.7574 17.6728 11.5176 17.5513 10.5783C17.4316 9.65849 17.2073 9.12834 16.833 8.74175C16.4597 8.35414 15.9467 8.12239 15.0575 7.99934C14.1493 7.87219 12.9523 7.87116 11.267 7.87116H7.733C6.0477 7.87116 4.8507 7.87219 3.9425 7.99934Z" fill="#2A7DEC"/>
</svg>

<svg width="24" height="24" fill="none" xmlns="http://www.w3.org/2000/svg"><rect x="5" y="1.5" width="19" height="16" rx="5" fill="#D4E5FB"/><path d="M4.5 6H13c4.5 0 6.5 1.212 6.5 6.5v5" stroke="#fff" stroke-linecap="round" stroke-linejoin="round"/><rect y="6.5" width="19" height="16" rx="5" fill="#fff"/><path d="M16.791 11.338c0 .738-.625 1.337-1.396 1.337-.771 0-1.395-.599-1.395-1.337 0-.739.625-1.338 1.395-1.338s1.396.599 1.396 1.338Z" fill="#2A7DEC"/><path fill-rule="evenodd" clip-rule="evenodd" d="M15.234 6.64c-1.007-.14-2.293-.14-3.917-.14H7.683c-1.625 0-2.911 0-3.917.14-1.036.143-1.875.448-2.537 1.132-.66.684-.954 1.551-1.094 2.624C0 11.436 0 12.768 0 14.448v.103c0 1.682 0 3.011.135 4.053.14 1.073.433 1.94 1.094 2.625.661.683 1.501.987 2.537 1.131 1.007.14 2.293.14 3.917.14h3.634c1.625 0 2.911 0 3.917-.14 1.036-.143 1.876-.448 2.537-1.131.66-.684.954-1.553 1.094-2.625.135-1.041.135-2.372.135-4.052v-.103c0-1.681 0-3.011-.135-4.053-.14-1.073-.433-1.94-1.094-2.624-.662-.684-1.501-.988-2.537-1.132ZM3.943 8c-.89.122-1.402.354-1.777.742-.373.386-.598.916-.717 1.836-.095.739-.117 1.66-.122 2.866l.447-.405a2.632 2.632 0 0 1 3.68.127l3.791 3.923a1.077 1.077 0 0 0 1.416.127l.265-.192a3.24 3.24 0 0 1 2.101-.618 3.293 3.293 0 0 1 2.022.875l2.287 2.13a5.05 5.05 0 0 0 .215-.99c.122-.938.124-2.177.124-3.92 0-1.744-.002-2.983-.124-3.923-.12-.92-.344-1.45-.718-1.836-.373-.388-.886-.62-1.775-.743-.909-.127-2.106-.128-3.791-.128H7.733c-1.685 0-2.882.001-3.79.128Z" fill="#2A7DEC"/></svg>
